ios/assets/icons/sk-road-5.svg

<svg id="Layer_1" data-name="Layer 1" xmlns="http://www.w3.org/2000/svg" width="0.5278in" height="0.1944in" viewBox="0 0 38 14"><title>sk-road-5</title><g id="not_needed" data-name="not needed"><path d="M37.5,11A2.4757,2.4757,0,0,1,35,13.5H3A2.4757,2.4757,0,0,1,.5,11V3A2.4757,2.4757,0,0,1,3,.5H35A2.4757,2.4757,0,0,1,37.5,3Z" fill="#fff"/><path d="M35,1a2.0941,2.0941,0,0,1,2,2.1v8A1.9226,1.9226,0,0,1,35,13H3a1.9226,1.9226,0,0,1-2-1.9v-8A2.0941,2.0941,0,0,1,3,1H35m0-1H3A3.0967,3.0967,0,0,0,0,3.1v8A2.9892,2.9892,0,0,0,3,14H35a2.9252,2.9252,0,0,0,3-2.9v-8A3.0312,3.0312,0,0,0,35,0Z" fill="#b3b3b3"/></g></svg>

<?xml version="1.0" encoding="utf-8"?>
<!-- Generator: Adobe Illustrator 17.1.0, SVG Export Plug-In . SVG Version: 6.00 Build 0)  -->
<!DOCTYPE svg PUBLIC "-//W3C//DTD SVG 1.1//EN" "http://www.w3.org/Graphics/SVG/1.1/DTD/svg11.dtd">
<svg version="1.1" id="Layer_1" xmlns="http://www.w3.org/2000/svg" xmlns:xlink="http://www.w3.org/1999/xlink" x="0px" y="0px"
	 width="38px" height="14px" viewBox="0 0 38 14" enable-background="new 0 0 38 14" xml:space="preserve">
<g id="shields">
</g>
<g id="not_needed">
	<g>
		<path fill="#6979bf" d="M37.5,11c0,1.4-1.1,2.5-2.5,2.5H3c-1.4,0-2.5-1.1-2.5-2.5V3c0-1.4,1.1-2.5,2.5-2.5h32
			c1.4,0,2.5,1.1,2.5,2.5V11z"/>
		<path fill="#FFFFFF" d="M35,1c1.1,0,2,1,2,2.1v8c0,1.1-0.9,1.9-2,1.9H3c-1.1,0-2-0.8-2-1.9v-8C1,2,1.9,1,3,1H35 M35,0H3
			C1.4,0,0,1.4,0,3.1v8C0,12.7,1.4,14,3,14h32c1.7,0,3-1.3,3-2.9v-8C38,1.4,36.7,0,35,0L35,0z"/>
	</g>
</g>
</svg>
